X: 29357
T: Newmarket
R: polka
M: 2/4
K: Dmajor
|:Ad df|ed Bd|Ad de|fe e2|
Ad df|ed Bd/B/|Ad d/c/d/e/|fd d2:|
|:fa gf|ed Bd|Ad de|fe e2|
f/g/a gf|ed Bd/B/|Ad d/c/d/e/|fd d2:|

